.local/share/icons/Gruvbox-Plus-Dark/panel/24/nutstore-paused-panel.svg

<svg xmlns="http://www.w3.org/2000/svg" width="24" height="24" version="1.1">
 <defs>
  <style id="current-color-scheme" type="text/css">
   .ColorScheme-Text { color:#ebdbb2; } .ColorScheme-Highlight { color:#458588; }
  </style>
 </defs>
 <path style="opacity:0.3;fill:currentColor" class="ColorScheme-Text" d="m 11.417317,5.0000005 c -0.604,-0.00237 -1.190628,0.077868 -1.7382813,0.2402344 -0.832589,0.3291024 -1.5163782,0.6323071 -0.7382813,1.0429687 1.4754386,0.770853 2.8652926,1.8222774 4.0683596,3.1542969 0.934789,1.0349845 1.693008,2.1710045 2.291015,3.3535155 A 5,5 0 0 1 17.999348,12 5,5 0 0 1 18.930989,12.08984 C 18.75231,10.519026 18.110691,8.8511432 16.893879,7.5039067 15.385738,5.8341138 13.319267,5.007463 11.417317,5.0000005 Z m 7.40625,0.00586 c -0.204194,-0.018859 -0.427398,0.013669 -0.658203,0.070312 -0.497911,0.1413938 -0.978369,0.507383 -1.445313,0.8964843 0.31868,0.2641452 0.629004,0.5435534 0.916016,0.8613282 0.110902,0.1227902 0.209869,0.2519012 0.3125,0.3789062 0.119496,-0.057018 0.249175,-0.1092291 0.404297,-0.1445312 0.358329,-0.081548 0.967456,0.1500187 1.25,0.2519531 0.375949,0.00644 0.449347,-0.5595558 0.365234,-0.9589844 C 19.869698,5.8940902 19.562803,5.5620602 19.370442,5.2480474 19.213309,5.095667 19.027761,5.0247178 18.823567,5.0058605 Z M 8.2493482,7.023438 c -0.04378,0.032066 -0.087034,0.05855 -0.1308594,0.091797 -3.310516,2.5117296 -5.1638736,8.063182 -3.4941406,10.029297 1.6162669,1.90316 5.4949448,2.34747 8.5898438,1.292969 A 5,5 0 0 1 12.999348,17 a 5,5 0 0 1 1.5,-3.570312 C 13.925905,12.255593 13.187653,11.126837 12.266926,10.107422 11.145497,8.8657929 9.8514958,7.8875853 8.4778638,7.1699224 h -0.00195 l -0.00195,-0.00195 C 8.3999676,7.1289193 8.3252372,7.0698293 8.2493482,7.023438 Z"/>
 <path style="fill:currentColor" class="ColorScheme-Text" d="m 18.277883,13.009931 c -0.768442,-0.05431 -1.561701,0.113093 -2.279029,0.52722 -1.912976,1.10434 -2.56709,3.550808 -1.46272,5.463557 1.104371,1.912649 3.549375,2.566886 5.462251,1.462546 1.912976,-1.104339 2.569043,-3.548854 1.464672,-5.461604 -0.690232,-1.195406 -1.904435,-1.901203 -3.185174,-1.991719 z m -2.279029,1.991719 h 0.999882 v 3.999058 h -0.999882 z m 2.999648,0 h 0.999883 v 3.999058 h -0.999883 z"/>
</svg>

<svg width="24" height="24" version="1.1" xmlns="http://www.w3.org/2000/svg">
  <defs>
    <style id="current-color-scheme" type="text/css">.ColorScheme-Text { color:#ebdbb2; } .ColorScheme-Highlight { color:#458588; } .ColorScheme-NeutralText { color:#fe8019; } .ColorScheme-PositiveText { color:#689d6a; } .ColorScheme-NegativeText { color:#fb4934; }</style>
  </defs>
  <path class="ColorScheme-Text" d="m11.42 5c-0.604-0.00237-1.191 0.07787-1.738 0.2402-0.8326 0.3291-1.516 0.6323-0.7383 1.043 1.475 0.7709 2.865 1.822 4.068 3.154 0.9348 1.035 1.693 2.171 2.291 3.354a5 5 0 0 1 2.699-0.791 5 5 0 0 1 0.9316 0.08984c-0.1787-1.571-0.8203-3.239-2.037-4.586-1.508-1.67-3.575-2.496-5.477-2.504zm7.406 0.00586c-0.2042-0.01886-0.4274 0.01367-0.6582 0.07031-0.4979 0.1414-0.9784 0.5074-1.445 0.8965 0.3187 0.2641 0.629 0.5436 0.916 0.8613 0.1109 0.1228 0.2099 0.2519 0.3125 0.3789 0.1195-0.05702 0.2492-0.1092 0.4043-0.1445 0.3583-0.08155 0.9675 0.15 1.25 0.252 0.3759 0.00644 0.4493-0.5596 0.3652-0.959-0.0984-0.4672-0.4053-0.7993-0.5977-1.113-0.1571-0.1524-0.3427-0.2233-0.5469-0.2422zm-10.57 2.018c-0.04378 0.03207-0.08703 0.05855-0.1309 0.0918-3.311 2.512-5.164 8.063-3.494 10.03 1.616 1.903 5.495 2.347 8.59 1.293a5 5 0 0 1-0.2148-1.438 5 5 0 0 1 1.5-3.57c-0.5734-1.174-1.312-2.303-2.232-3.322-1.121-1.242-2.415-2.22-3.789-2.937h-0.00195l-0.00195-0.00195c-0.074-0.03905-0.1487-0.09814-0.2246-0.1445z" fill="currentColor" opacity=".3"/>
  <path class="ColorScheme-Text" d="m18.28 13.01c-0.7684-0.05431-1.562 0.1131-2.279 0.5272-1.913 1.104-2.567 3.551-1.463 5.464 1.104 1.913 3.549 2.567 5.462 1.463 1.913-1.104 2.569-3.549 1.465-5.462-0.6902-1.195-1.904-1.901-3.185-1.992zm-2.279 1.992h0.9999v3.999h-0.9999zm3 0h0.9999v3.999h-0.9999z" fill="currentColor"/>
</svg>
